X: 1
T:Maid Behind the Bar
T: Judy's Reel
%D:1840
R: reel
Z: John Chambers (from several other versions)
M: C|
L: 1/8
K: D
|:\
"D"FAAB AFED | FAA[BF] ABde | "Bm"fBBA Bcde | f2ef "A7"edBA |\
"D"FAAB AFED | FAA[BF] ABde | "Bm"fBBA "G"BcdB | "A7"AFEF "D"D4 :|
|:\
"D"faab afde | fdad bdfd | "Em"efga bgef | gebe "A7"geeg |\
"D"fgaf bfaf | defd efde | "Bm"fBBA "G"BcdB | "A7"AFEF "D"D4 :|
